src/pos-icons/arrow-up-bold-circle-outline.svg

<svg height="24" viewBox="0 0 24 24" width="24" xmlns="http://www.w3.org/2000/svg"><path d="m12 7 5 5h-3v4h-4v-4h-3zm0 15a10 10 0 0 1 -10-10 10 10 0 0 1 10-10 10 10 0 0 1 10 10 10 10 0 0 1 -10 10m0-2a8 8 0 0 0 8-8 8 8 0 0 0 -8-8 8 8 0 0 0 -8 8 8 8 0 0 0 8 8z"/></svg>

<?xml version="1.0" encoding="UTF-8"?><!DOCTYPE svg PUBLIC "-//W3C//DTD SVG 1.1//EN" "http://www.w3.org/Graphics/SVG/1.1/DTD/svg11.dtd"><svg xmlns="http://www.w3.org/2000/svg" xmlns:xlink="http://www.w3.org/1999/xlink" version="1.1" id="mdi-arrow-up-bold-circle-outline" width="24" height="24" viewBox="0 0 24 24"><path d="M12,7L17,12H14V16H10V12H7L12,7M12,22A10,10 0 0,1 2,12A10,10 0 0,1 12,2A10,10 0 0,1 22,12A10,10 0 0,1 12,22M12,20A8,8 0 0,0 20,12A8,8 0 0,0 12,4A8,8 0 0,0 4,12A8,8 0 0,0 12,20Z" /></svg>
